X:9303
T:Las Dancitas
R:Danza
C:Tradicional
S:Música Tradicional Asturiana, (C) Tello & Tito. Asturies, 2001.
S:http://pagina.de/MusTradAst <telloytito@asturies.org>
A:Asturies
Z:Curdión
M:3/8
L:1/8
Q:1/4=150
K:C
|: G2 G|F2 E|GAG|F2 E|G2 G|F2 G|FED|[1 C3 :|[2 C2 C/C/|
|: FED|EDC|DEF|G2 C/C/|FED|EDC|DCB,|[1 C2 C/C/ :|[2 C3||


